!!!COM: Music21
!!!OTL: barndance_Janes-Boots
!!!OMV: barndance_Janes-Boots
**kern
*clefG2
*k[b-e-a-d-]
*f:
*M4/4
=1
4a-
8ccL
8a-J
8gL
8ccJ
8ccL
8gJ
=
8fL
8ccJ
8ccL
8fJ
8e-L
8ccJ
8ccL
8e-J
=
8fL
8gJ
8a-L
8b-J
8b-L
8ccJ
8b-L
8a-J
=
8a-L
8gJ
8fL
8ccJ
4g
8fL
8gJ
=
4a-
8ccL
8a-J
8gL
8ccJ
8ccL
8gJ
!!linebreak:original
=
8fL
8ccJ
8ccL
8fJ
8e-L
8ccJ
8ccL
8e-J
=
8fL
8gJ
8a-L
8ccJ
4.g
8e-
=
8e-L
8cJ
4f
8fL
8e-J
8fL
8gJ
=||
*M4/4
4a-
8ccL
8a-J
8gL
8ccJ
8ccL
8gJ
=
8fL
8ccJ
8ccL
8fJ
8e-L
8ccJ
8ccL
8e-J
!!linebreak:original
=
8fL
8gJ
8a-L
8b-J
8b-L
8ccJ
8b-L
8a-J
=
8a-L
8gJ
8fL
8ccJ
4g
8fL
8gJ
=
4a-
8ccL
8a-J
8gL
8ccJ
8ccL
8gJ
=
8fL
8ccJ
8ccL
8fJ
8e-L
8ccJ
8ccL
8e-J
=
8fL
8gJ
8a-L
8ccJ
4.g
8e-
!!linebreak:original
=
8e-L
8cJ
4f
8fL
8e-J
8fL
8gJ
=||
4a-
8b-L
8a-J
8e-L
8gJ
8gL
8b-J
=
8ccL
8b-J
8b-L
8a-J
8e-L
8gJ
8cL
8B-J
=
4c
8fL
8gJ
8gL
8a-J
8a-L
8gJ
=
8fL
8a-J
8b-L
8ccJ
4b-
8a-L
8gJ
!!linebreak:original
=
4a-
8b-L
8a-J
8e-L
8gJ
8gL
8b-J
=
8ccL
8b-J
8b-L
8a-J
8e-L
8gJ
8cL
8B-J
=
4c
8fL
8gJ
8gL
8a-J
8a-L
8gJ
=
8fL
8a-J
8b-L
8gJ
8gL
8fJ
8e-L
8gJ
=||
4a-
8b-L
8a-J
8e-L
8gJ
8gL
8b-J
!!linebreak:original
=
8ccL
8b-J
8b-L
8a-J
8e-L
8gJ
8cL
8B-J
=
4c
8fL
8gJ
8gL
8a-J
8a-L
8gJ
=
8fL
8a-J
8b-L
8ccJ
4b-
8a-L
8gJ
=
4a-
8b-L
8a-J
8e-L
8gJ
8gL
8b-J
=
8ccL
8b-J
8b-L
8a-J
8e-L
8gJ
8cL
8B-J
!!linebreak:original
=
4c
8fL
8gJ
8gL
8a-J
8a-L
8gJ
=
8fL
8a-J
8b-L
8gJ
8gL
8fJ
8e-L
8gJ
=||
*-
